src/static/img/icons/phone-icon.svg

<svg width="18" height="18" viewBox="0 0 18 18" fill="none" xmlns="http://www.w3.org/2000/svg">
<path d="M14.625 16.3125H14.5294C3.47625 15.6769 1.90688 6.35063 1.6875 3.50438C1.66983 3.28308 1.69599 3.06046 1.76449 2.84929C1.833 2.63812 1.9425 2.44255 2.08672 2.27377C2.23094 2.10499 2.40704 1.96632 2.60495 1.86572C2.80285 1.76512 3.01865 1.70456 3.24 1.6875H6.33938C6.56469 1.68728 6.78488 1.75472 6.97142 1.88109C7.15796 2.00746 7.30226 2.18693 7.38563 2.39625L8.24063 4.5C8.32295 4.7045 8.34338 4.92867 8.29938 5.14468C8.25538 5.36068 8.14888 5.559 7.99313 5.715L6.795 6.92438C6.98216 7.98792 7.49148 8.96831 8.25407 9.73291C9.01666 10.4975 9.9957 11.0094 11.0588 11.1994L12.2794 9.99C12.4377 9.83596 12.6379 9.73195 12.855 9.69094C13.072 9.64993 13.2964 9.67373 13.5 9.75938L15.6206 10.6088C15.8268 10.6947 16.0027 10.8402 16.1259 11.0265C16.2491 11.2128 16.3141 11.4316 16.3125 11.655V14.625C16.3125 15.0726 16.1347 15.5018 15.8182 15.8182C15.5018 16.1347 15.0726 16.3125 14.625 16.3125ZM3.375 2.8125C3.22582 2.8125 3.08274 2.87176 2.97725 2.97725C2.87177 3.08274 2.8125 3.22582 2.8125 3.375V3.42C3.07125 6.75 4.73063 14.625 14.5913 15.1875C14.6652 15.1921 14.7392 15.182 14.8092 15.1579C14.8792 15.1338 14.9438 15.0961 14.9992 15.0469C15.0546 14.9978 15.0997 14.9382 15.132 14.8716C15.1644 14.805 15.1832 14.7327 15.1875 14.6587V11.655L13.0669 10.8056L11.4525 12.4087L11.1825 12.375C6.28875 11.7619 5.625 6.86813 5.625 6.8175L5.59125 6.5475L7.18875 4.93313L6.345 2.8125H3.375Z" fill="white"/>
</svg>

<svg width="18" height="18" fill="none" xmlns="http://www.w3.org/2000/svg"><path d="M14.625 16.313h-.096C3.476 15.677 1.907 6.35 1.688 3.504A1.688 1.688 0 0 1 3.24 1.687h3.1a1.125 1.125 0 0 1 1.046.71L8.24 4.5a1.125 1.125 0 0 1-.248 1.215l-1.198 1.21a5.27 5.27 0 0 0 4.264 4.274l1.22-1.209a1.125 1.125 0 0 1 1.221-.23l2.12.849a1.124 1.124 0 0 1 .693 1.046v2.97a1.687 1.687 0 0 1-1.688 1.688Zm-11.25-13.5a.563.563 0 0 0-.563.562v.045c.26 3.33 1.919 11.205 11.78 11.768a.562.562 0 0 0 .595-.53v-3.003l-2.12-.85-1.614 1.604-.27-.034c-4.894-.613-5.558-5.507-5.558-5.558l-.034-.27L7.19 4.934l-.844-2.12h-2.97Z" fill="#fff"/></svg>
